X: 15049
T: Ger The Rigger
R: polka
M: 2/4
K: Amixolydian
|:eA eA|e/f/e/d/ cA|d2 d/e/f/g/|ae fe|
eA eA|e/f/e/d/ cA|d2 c2|B/A/B/c/ [1 A2:|2 A(3e/f/g/||
|:ae f/e/c/e/|ae f/e/c/A/|d2 d/e/f/g/|ae fe|
ae f/e/c/e/|ae f/e/c/A/|d2 c2|B/A/B/c/ [1 A(3e/f/g/:|2 A2||

